X: 14529
T: Gan Ainm
R: reel
M: 4/4
K: Amajor
|:AB|CAA2 CEDB|CAFA EFAB|CAA2 AFEA|FEFA B2AF|
AAAG FEFG|A2AF ECBA|EAEE FGAB|CAA2 A2:|
|:(3FED|CA,A,2 A,CEA|FEFG A2AB|CAA2 FAAG|F2FG GBEB|
CEAC BCDE|F2FG FECA|EAEE FGAB|CAA2 A2:|

